outputs/icons/device/bluetooth_sharp.svg

<svg xmlns="http://www.w3.org/2000/svg" width="1200" height="1200" fill="none"><g clip-path="url(#a)"><path fill="#000" d="M885.5 385.5 600 100h-50v379.5L320.5 250 250 320.5 529.5 600 250 879.5l70.5 70.5L550 720.5V1100h50l285.5-285.5-215-214.5zm-235.5-94 94 94-94 94zm94 523-94 94v-188z"/></g><defs><clipPath id="a"><path fill="#fff" d="M0 0h1200v1200H0z"/></clipPath></defs></svg>

<svg width="1200" height="1200" viewBox="0 0 1200 1200" fill="none" xmlns="http://www.w3.org/2000/svg"><g clip-path="url(#clip0_133_55)"><path d="M885.5 385.5L600 100H550V479.5L320.5 250L250 320.5L529.5 600L250 879.5L320.5 950L550 720.5V1100H600L885.5 814.5L670.5 600L885.5 385.5ZM650 291.5L744 385.5L650 479.5V291.5ZM744 814.5L650 908.5V720.5L744 814.5Z" fill="#1D1E23"/></g><defs><clipPath id="clip0_133_55"><path width="24" fill="white" d="M0 0H1200V1200H0V0z"/></clipPath></defs></svg>
